ci/cil-face.svg

<svg xmlns="http://www.w3.org/2000/svg" viewBox="0 0 512 512" height="1em" width="1em">
  <path fill="var(--ci-primary-color, currentColor)" d="M256 16C123.452 16 16 123.452 16 256s107.452 240 240 240 240-107.452 240-240S388.548 16 256 16Zm147.078 387.078a207.253 207.253 0 1 1 44.589-66.125 207.332 207.332 0 0 1-44.589 66.125Z" class="ci-primary"/>
  <path fill="var(--ci-primary-color, currentColor)" class="ci-primary" d="M128 192h40v40h-40zm208 0h40v40h-40zM232 306.948a5.049 5.049 0 0 1 .194-1.387L264 194.241V168h-32v21.759l-30.574 107.009A37.052 37.052 0 0 0 237.052 344H296v-32h-58.948a5.057 5.057 0 0 1-5.052-5.052Z"/>
</svg>

<svg xmlns="http://www.w3.org/2000/svg" viewBox="0 0 512 512" height="1em" width="1em">
  <path fill="var(--ci-primary-color, currentColor)" d="M256,16C123.452,16,16,123.452,16,256S123.452,496,256,496,496,388.548,496,256,388.548,16,256,16ZM403.078,403.078a207.253,207.253,0,1,1,44.589-66.125A207.332,207.332,0,0,1,403.078,403.078Z" class="ci-primary"/>
  <rect width="40" height="40" x="128" y="192" fill="var(--ci-primary-color, currentColor)" class="ci-primary"/>
  <rect width="40" height="40" x="336" y="192" fill="var(--ci-primary-color, currentColor)" class="ci-primary"/>
  <path fill="var(--ci-primary-color, currentColor)" d="M232,306.948a5.049,5.049,0,0,1,.194-1.387L264,194.241V168H232v21.759L201.426,296.768A37.052,37.052,0,0,0,237.052,344H296V312H237.052A5.057,5.057,0,0,1,232,306.948Z" class="ci-primary"/>
</svg>
